public/logo.svg

<svg fill="none" height="109" viewBox="0 0 341 109" width="341" xmlns="http://www.w3.org/2000/svg"><path d="m37.2 44.9c-3.3333-1.7333-6.6-2.6-9.8-2.6-1.6667 0-3.0333.3333-4.1 1-1 .6667-1.5 1.5667-1.5 2.7 0 .6.0667 1.1.2 1.5.2.3333.5667.6667 1.1 1 .6.3333 1.4333.6333 2.5.9 1.1333.2667 2.6.6 4.4 1 5 1 8.7333 2.8 11.2 5.4 2.4667 2.5333 3.7 5.8 3.7 9.8 0 3-.6 5.7-1.8 8.1s-2.8667 4.4333-5 6.1c-2.1333 1.6-4.7 2.8333-7.7 3.7-3 .9333-6.3 1.4-9.9 1.4-6.9333 0-13.76667-1.9667-20.49999988-5.9l6.59999988-12.8c5.0667 3.4667 9.8667 5.2 14.4 5.2 1.6667 0 3.0333-.3667 4.1-1.1s1.6-1.6667 1.6-2.8c0-.6667-.1-1.2-.3-1.6-.1333-.4667-.4667-.8667-1-1.2-.5333-.4-1.3333-.7333-2.4-1-1-.3333-2.3333-.6667-4-1-5.6-1.1333-9.53333-2.8-11.8-5-2.2-2.2667-3.3-5.3667-3.3-9.3 0-2.8667.53333-5.4333 1.6-7.7 1.06667-2.3333 2.6-4.3 4.6-5.9s4.4-2.8333 7.2-3.7c2.8667-.8667 6.0333-1.3 9.5-1.3 5.6667 0 11.1667 1.1 16.5 3.3zm34.9789-13.2v51.3h-18.1v-51.3zm-19.3-19.7c0-1.4.2667-2.7.8-3.9.5333-1.26667 1.2667-2.36667 2.2-3.30001.9333-.93333 2-1.66666 3.2-2.19999 1.2667-.53334 2.6-.8 4-.8s2.7.26666 3.9.8c1.2667.53333 2.3667 1.26666 3.3 2.19999.9333.93334 1.6667 2.03334 2.2 3.30001.5333 1.2.8 2.5.8 3.9s-.2667 2.7333-.8 4c-.5333 1.2-1.2667 2.2667-2.2 3.2s-2.0333 1.6667-3.3 2.2c-1.2.5333-2.5.8-3.9.8s-2.7333-.2667-4-.8c-1.2-.5333-2.2667-1.2667-3.2-2.2s-1.6667-2-2.2-3.2c-.5333-1.2667-.8-2.6-.8-4zm31.6688 19.7h18.1003v6.3c4.933-4.7333 10.466-7.1 16.6-7.1 7.6 0 13.4 3.2 17.4 9.6 4.066-6.4667 9.866-9.7 17.4-9.7 2.4 0 4.666.3667 6.8 1.1 2.133.6667 3.966 1.7667 5.5 3.3 1.533 1.4667 2.733 3.4 3.6 5.8.933 2.4 1.4 5.3 1.4 8.7v33.3h-18.1v-25.3c0-2.6-.2-4.7333-.6-6.4-.334-1.6667-.867-2.9667-1.6-3.9-.667-.9333-1.467-1.5667-2.4-1.9-.934-.3333-1.934-.5-3-.5-5.8 0-8.7 4.2333-8.7 12.7v25.3h-18.1v-25.3c0-2.6-.167-4.7333-.5-6.4-.334-1.7333-.834-3.1-1.5-4.1-.6-1-1.4-1.6667-2.4-2-1-.4-2.167-.6-3.5-.6-1.134 0-2.2.1667-3.2.5s-1.9 1-2.7 2c-.734.9333-1.334 2.2667-1.8 4-.4 1.6667-.6 3.8667-.6 6.6v25.3h-18.1003zm141.8763 25.8c0-1.6-.3-3.1-.9-4.5-.533-1.4667-1.333-2.7333-2.4-3.8-1.066-1.0667-2.333-1.9-3.8-2.5-1.4-.6667-2.933-1-4.6-1-1.6 0-3.1.3-4.5.9s-2.633 1.4333-3.7 2.5c-1 1.0667-1.833 2.3333-2.5 3.8-.6 1.4-.9 2.9-.9 4.5s.3 3.1.9 4.5 1.434 2.6333 2.5 3.7c1.067 1 2.3 1.8333 3.7 2.5 1.467.6 3 .9 4.6.9s3.1-.3 4.5-.9 2.6-1.4333 3.6-2.5c1.067-1.0667 1.9-2.3 2.5-3.7.667-1.4 1-2.8667 1-4.4zm-22.8 51.1h-18.1v-76.9h18.1v5.7c3.867-4.8667 9.134-7.3 15.8-7.3 3.667 0 7.067.7333 10.2 2.2 3.2 1.4 5.967 3.3333 8.3 5.8 2.334 2.4667 4.134 5.3667 5.4 8.7 1.334 3.3333 2 6.9 2 10.7s-.666 7.3333-2 10.6c-1.266 3.2667-3.066 6.1333-5.4 8.6-2.266 2.4667-4.966 4.4-8.1 5.8-3.133 1.4-6.533 2.1-10.2 2.1-6.4 0-11.733-2.2-16-6.6zm70.117-108.60000429v83.00000429h-18.1v-83.00000429zm49.869 49.90000429c-.6-2.5333-1.833-4.5667-3.7-6.1s-4.133-2.3-6.8-2.3c-2.8 0-5.1.7333-6.9 2.2-1.733 1.4667-2.833 3.5333-3.3 6.2zm-21.2 10.5c0 7.8 3.667 11.7 11 11.7 3.933 0 6.9-1.6 8.9-4.8h17.5c-3.533 11.7333-12.367 17.6-26.5 17.6-4.333 0-8.3-.6333-11.9-1.9-3.6-1.3333-6.7-3.2-9.3-5.6-2.533-2.4-4.5-5.2667-5.9-8.6s-2.1-7.0667-2.1-11.2c0-4.2667.667-8.1 2-11.5 1.333-3.4667 3.233-6.4 5.7-8.8s5.433-4.2333 8.9-5.5c3.533-1.3333 7.5-2 11.9-2 4.333 0 8.233.6667 11.7 2 3.467 1.2667 6.4 3.1333 8.8 5.6s4.233 5.5 5.5 9.1c1.267 3.5333 1.9 7.5333 1.9 12v1.9z" fill="#21213b"/></svg>

<svg width="341" height="109" viewBox="0 0 341 109" fill="none" xmlns="http://www.w3.org/2000/svg">
<path d="M37.2 44.9C33.8667 43.1667 30.6 42.3 27.4 42.3C25.7333 42.3 24.3667 42.6333 23.3 43.3C22.3 43.9667 21.8 44.8667 21.8 46C21.8 46.6 21.8667 47.1 22 47.5C22.2 47.8333 22.5667 48.1667 23.1 48.5C23.7 48.8333 24.5333 49.1333 25.6 49.4C26.7333 49.6667 28.2 50 30 50.4C35 51.4 38.7333 53.2 41.2 55.8C43.6667 58.3333 44.9 61.6 44.9 65.6C44.9 68.6 44.3 71.3 43.1 73.7C41.9 76.1 40.2333 78.1333 38.1 79.8C35.9667 81.4 33.4 82.6333 30.4 83.5C27.4 84.4333 24.1 84.9 20.5 84.9C13.5667 84.9 6.73333 82.9333 1.19209e-07 79L6.6 66.2C11.6667 69.6667 16.4667 71.4 21 71.4C22.6667 71.4 24.0333 71.0333 25.1 70.3C26.1667 69.5667 26.7 68.6333 26.7 67.5C26.7 66.8333 26.6 66.3 26.4 65.9C26.2667 65.4333 25.9333 65.0333 25.4 64.7C24.8667 64.3 24.0667 63.9667 23 63.7C22 63.3667 20.6667 63.0333 19 62.7C13.4 61.5667 9.46667 59.9 7.2 57.7C5 55.4333 3.9 52.3333 3.9 48.4C3.9 45.5333 4.43333 42.9667 5.5 40.7C6.56667 38.3667 8.1 36.4 10.1 34.8C12.1 33.2 14.5 31.9667 17.3 31.1C20.1667 30.2333 23.3333 29.8 26.8 29.8C32.4667 29.8 37.9667 30.9 43.3 33.1L37.2 44.9ZM72.1789 31.7V83H54.0789V31.7H72.1789ZM52.8789 12C52.8789 10.6 53.1456 9.3 53.6789 8.1C54.2122 6.83333 54.9456 5.73333 55.8789 4.79999C56.8122 3.86666 57.8789 3.13333 59.0789 2.6C60.3456 2.06666 61.6789 1.8 63.0789 1.8C64.4789 1.8 65.7789 2.06666 66.9789 2.6C68.2456 3.13333 69.3456 3.86666 70.2789 4.79999C71.2122 5.73333 71.9456 6.83333 72.4789 8.1C73.0122 9.3 73.2789 10.6 73.2789 12C73.2789 13.4 73.0122 14.7333 72.4789 16C71.9456 17.2 71.2122 18.2667 70.2789 19.2C69.3456 20.1333 68.2456 20.8667 66.9789 21.4C65.7789 21.9333 64.4789 22.2 63.0789 22.2C61.6789 22.2 60.3456 21.9333 59.0789 21.4C57.8789 20.8667 56.8122 20.1333 55.8789 19.2C54.9456 18.2667 54.2122 17.2 53.6789 16C53.1456 14.7333 52.8789 13.4 52.8789 12ZM84.5477 31.7H102.648V38C107.581 33.2667 113.114 30.9 119.248 30.9C126.848 30.9 132.648 34.1 136.648 40.5C140.714 34.0333 146.514 30.8 154.048 30.8C156.448 30.8 158.714 31.1667 160.848 31.9C162.981 32.5667 164.814 33.6667 166.348 35.2C167.881 36.6667 169.081 38.6 169.948 41C170.881 43.4 171.348 46.3 171.348 49.7V83H153.248V57.7C153.248 55.1 153.048 52.9667 152.648 51.3C152.314 49.6333 151.781 48.3333 151.048 47.4C150.381 46.4667 149.581 45.8333 148.648 45.5C147.714 45.1667 146.714 45 145.648 45C139.848 45 136.948 49.2333 136.948 57.7V83H118.848V57.7C118.848 55.1 118.681 52.9667 118.348 51.3C118.014 49.5667 117.514 48.2 116.848 47.2C116.248 46.2 115.448 45.5333 114.448 45.2C113.448 44.8 112.281 44.6 110.948 44.6C109.814 44.6 108.748 44.7667 107.748 45.1C106.748 45.4333 105.848 46.1 105.048 47.1C104.314 48.0333 103.714 49.3667 103.248 51.1C102.848 52.7667 102.648 54.9667 102.648 57.7V83H84.5477V31.7ZM226.424 57.5C226.424 55.9 226.124 54.4 225.524 53C224.991 51.5333 224.191 50.2667 223.124 49.2C222.058 48.1333 220.791 47.3 219.324 46.7C217.924 46.0333 216.391 45.7 214.724 45.7C213.124 45.7 211.624 46 210.224 46.6C208.824 47.2 207.591 48.0333 206.524 49.1C205.524 50.1667 204.691 51.4333 204.024 52.9C203.424 54.3 203.124 55.8 203.124 57.4C203.124 59 203.424 60.5 204.024 61.9C204.624 63.3 205.458 64.5333 206.524 65.6C207.591 66.6 208.824 67.4333 210.224 68.1C211.691 68.7 213.224 69 214.824 69C216.424 69 217.924 68.7 219.324 68.1C220.724 67.5 221.924 66.6667 222.924 65.6C223.991 64.5333 224.824 63.3 225.424 61.9C226.091 60.5 226.424 59.0333 226.424 57.5ZM203.624 108.6H185.524V31.7H203.624V37.4C207.491 32.5333 212.758 30.1 219.424 30.1C223.091 30.1 226.491 30.8333 229.624 32.3C232.824 33.7 235.591 35.6333 237.924 38.1C240.258 40.5667 242.058 43.4667 243.324 46.8C244.658 50.1333 245.324 53.7 245.324 57.5C245.324 61.3 244.658 64.8333 243.324 68.1C242.058 71.3667 240.258 74.2333 237.924 76.7C235.658 79.1667 232.958 81.1 229.824 82.5C226.691 83.9 223.291 84.6 219.624 84.6C213.224 84.6 207.891 82.4 203.624 78V108.6ZM273.741 -4.29153e-06V83H255.641V-4.29153e-06H273.741ZM323.61 49.9C323.01 47.3667 321.777 45.3333 319.91 43.8C318.043 42.2667 315.777 41.5 313.11 41.5C310.31 41.5 308.01 42.2333 306.21 43.7C304.477 45.1667 303.377 47.2333 302.91 49.9H323.61ZM302.41 60.4C302.41 68.2 306.077 72.1 313.41 72.1C317.343 72.1 320.31 70.5 322.31 67.3H339.81C336.277 79.0333 327.443 84.9 313.31 84.9C308.977 84.9 305.01 84.2667 301.41 83C297.81 81.6667 294.71 79.8 292.11 77.4C289.577 75 287.61 72.1333 286.21 68.8C284.81 65.4667 284.11 61.7333 284.11 57.6C284.11 53.3333 284.777 49.5 286.11 46.1C287.443 42.6333 289.343 39.7 291.81 37.3C294.277 34.9 297.243 33.0667 300.71 31.8C304.243 30.4667 308.21 29.8 312.61 29.8C316.943 29.8 320.843 30.4667 324.31 31.8C327.777 33.0667 330.71 34.9333 333.11 37.4C335.51 39.8667 337.343 42.9 338.61 46.5C339.877 50.0333 340.51 54.0333 340.51 58.5V60.4H302.41Z" fill="#21213B"/>
</svg>
